Font-Source/Egyptian2/svg-my/1381F.svg

<?xml version="1.0" encoding="UTF-8" standalone="no"?>
<svg
   width="600"
   height="1000"
   version="1.1"
   id="svg1"
   sodipodi:docname="1381F.svg"
   inkscape:version="1.4.2 (f4327f4, 2025-05-13)"
   xmlns:inkscape="http://www.inkscape.org/namespaces/inkscape"
   xmlns:sodipodi="http://sodipodi.sourceforge.net/DTD/sodipodi-0.dtd"
   xmlns="http://www.w3.org/2000/svg"
   xmlns:svg="http://www.w3.org/2000/svg">
  <defs
     id="defs1" />
  <sodipodi:namedview
     id="namedview1"
     pagecolor="#ffffff"
     bordercolor="#666666"
     borderopacity="1.0"
     inkscape:showpageshadow="2"
     inkscape:pageopacity="0.0"
     inkscape:pagecheckerboard="0"
     inkscape:deskcolor="#d1d1d1"
     inkscape:zoom="1"
     inkscape:cx="262.5"
     inkscape:cy="161.5"
     inkscape:window-width="1680"
     inkscape:window-height="998"
     inkscape:window-x="-8"
     inkscape:window-y="-8"
     inkscape:window-maximized="1"
     inkscape:current-layer="svg1"
     showguides="true">
    <sodipodi:guide
       position="4.234596,17.107108"
       orientation="0.95257762,-0.30429571"
       id="guide1"
       inkscape:locked="false" />
    <sodipodi:guide
       position="4.029193,16.006737"
       orientation="-0.95746447,0.28855121"
       id="guide2"
       inkscape:locked="false" />
    <sodipodi:guide
       position="283.61895,820.45306"
       orientation="0,-1"
       id="guide3"
       inkscape:locked="false" />
    <sodipodi:guide
       position="139,811.61968"
       orientation="0,-1"
       id="guide4"
       inkscape:locked="false" />
    <sodipodi:guide
       position="118.16992,425.9375"
       orientation="1,0"
       id="guide5"
       inkscape:locked="false" />
    <sodipodi:guide
       position="179.60547,735.91992"
       orientation="0,-1"
       id="guide15"
       inkscape:locked="false" />
  </sodipodi:namedview>
  <path
     id="path3"
     style="fill:#000000;stroke:none;stroke-width:0.999998"
     d="m 227.02148,0 c -14.03791,0 -24.86677,12.92393 -32.4707,38.660156 L 129.66602,188.38086 c 6.75798,18.19103 2.80928,42.48672 -3.55469,51.99023 -2.92454,4.09436 -4.08879,8.16925 -3.50391,12.26368 -6.43406,10.52845 -11.26539,19.02687 -14.48242,25.46093 -1.70665,3.41335 -4.29749,9.74668 -0.46875,10.51172 h 8.76172 l -0.81836,3.50391 c -3.50954,2.3396 -3.50954,5.01886 0,7.94336 -4.15021,4.98004 -0.77299,6.37834 0.81641,7.00586 l 0.93554,11.44726 c -4.37276,20.83278 -19.806982,44.14022 -42.990232,40.4961 -7.285457,-8.74355 -17.174559,2.52424 -5.271484,9.39648 30.397552,17.55003 57.833166,-28.92714 69.285156,-45.57031 l 12.26367,-0.81836 c 0,6.43408 1.51291,13.41955 4.4375,21.02344 -0.58405,7.60439 -4.42637,12.26087 -11.44531,14.01562 -21.05695,4.09437 -31.88385,12.76909 -32.46875,25.92969 -0.58485,13.16056 4.65419,22.99952 15.76758,29.43359 -11.6983,36.84961 -15.033,65.19649 -8.75977,159.29492 -11.91916,5.01858 -24.52701,5.45448 -38.328123,1.37696 -13.801076,-4.07752 -24.853401,-7.82322 -33.322266,-11.27344 -7.410259,-3.01892 -11.733945,-5.58247 -12.90039,-7.64062 -0.06744,-0.14321 -0.216448,-0.4897 -0.251953,-0.62696 l -0.125,-0.125 c -0.313708,-2.19569 -1.99816,-3.19645 -5.134766,-2.88281 -3.136612,0.31389 -6.448158,0.0663 -9.898438,-0.875 -3.450277,-0.94101 -7.820129,-1.94193 -13.1523434,-2.88281 -5.33224981,-0.941 -9.2641237,0.93178 -11.7734375,5.63672 -2.5092709,4.70493 -2.0733265,9.70092 1.3769531,15.0332 3.4502797,5.33246 7.5704762,9.07968 12.2753907,11.27539 4.7049141,2.1954 8.0145101,2.7563 9.8964841,1.50195 37.012028,13.80104 69.604439,22.54075 97.833989,26.30469 6.90057,72.76941 15.1068,116.42657 25.92773,188.37109 10.82092,71.94441 15.30357,90.71663 13.54883,112.94336 0,15.79266 -5.41337,25.45715 -16.23438,28.9668 -10.82091,3.50977 -31.95174,15.50072 -63.537106,35.97266 H 58.486328 c -13.453063,0 -14.035137,9.08248 -1.751953,27.21484 H 217.33008 c 15.79266,-5.84918 16.95686,-26.34073 3.5039,-61.43555 10.52851,-73.11422 12.27673,-90.31442 5.25782,-108.15429 -17.15596,-43.60529 9.75205,-46.71156 5.25586,-105.91211 -2.99019,-39.37633 -1.57051,-61.56758 8.75976,-74.98438 16.42972,-21.33866 12.64582,-57.85346 -7.82617,-106.98633 12.8681,-80.71822 23.69699,-104.15757 32.4707,-120.53515 8.7737,-16.3776 17.50556,-25.11138 26.2793,-26.28125 5.14982,0.17458 10.37116,0.28348 15.66406,0.32812 V 1000 h 14 V 396.00781 c 26.16604,-0.33169 54.00199,-2.18009 83.51172,-5.55273 7.60365,-32.16992 12.26088,-59.58819 14.01563,-82.10742 1.75474,-22.5192 6.18025,-46.32912 13.19922,-71.48047 10.52848,-12.2832 18.09587,-26.83828 22.77539,-43.80078 1.16993,-4.09442 1.75195,-10.26431 1.75195,-18.45313 0,-8.18877 0.34999,-15.52491 0.93555,-21.95898 0,-0.98162 -0.11989,-4.31836 -1.75,-4.31836 -1.75471,-1.75471 -3.50109,-1.52332 -5.25586,0.8164 -1.23892,-1.85822 -2.32483,-2.54333 -3.2461,-2.56445 -1.34647,-0.0309 -2.341,1.35579 -2.94531,2.56445 -1.28258,-1.60338 -3.67247,-3.86012 -6.07031,0.93555 -3.62035,-3.62035 -6.19336,-0.61312 -6.19336,3.50391 0.58483,9.94357 0.41009,17.51309 -0.4668,22.77734 -0.87733,5.26419 -3.38021,13.76264 -7.47461,25.46094 -0.80422,1.60856 -1.76771,2.76861 -2.57031,3.26953 -0.2921,0.14579 -0.6411,0.23437 -0.93359,0.23437 -0.10628,-0.0137 -0.43121,-0.074 -0.58594,-0.11523 l -0.11524,-0.11719 h -0.11718 c -0.68108,-0.50632 -1.34986,-1.66299 -1.75196,-3.27148 0,-2.92455 0.81561,-7.00139 2.57032,-12.26563 1.75399,-5.26553 2.27783,-9.45631 1.40039,-12.38086 -0.87732,-2.92455 -2.79812,-3.74015 -5.72266,-2.57031 -2.33965,0.58483 -3.32955,3.32117 -3.03711,8.29297 0.29267,4.97175 -1.80456,12.07446 -6.19141,21.14063 -4.38848,9.06432 -5.14529,19.37008 -2.2207,31.06835 -15.79277,56.15184 -26.61959,96.55274 -32.46875,121.11915 -16.02185,-3.05179 -33.0341,-5.25202 -51.04297,-6.57618 v -86.65039 c 0,-36.60097 -9.94839,-74.6084 -51.26562,-74.62695 L 296.2832,64.939453 C 302.13234,39.788119 299.22171,23.720128 287.52344,16.701172 275.82517,9.6821756 265.34691,9.1000416 255.98828,14.949219 250.72403,5.0056537 241.05943,0 227.02148,0 Z m 1.48243,19.5 c 2.06442,0.03471 4.19097,0.637481 6.45898,1.523438 9.65424,3.771256 11.92336,13.171299 6.07422,30.71875 L 197.4082,188.38086 h -47 L 209.50195,42.164062 C 216.68172,24.399183 222.31065,19.395875 228.50391,19.5 Z m 37.76171,11.410156 c 2.80794,0.01192 5.56579,0.861199 8.17579,1.560547 9.867,2.643853 12.27202,12.235755 7.00781,29.783203 L 251.42969,188.38086 H 207.42578 L 248.04492,53.494141 c 5.62303,-18.584744 12.04324,-22.610211 18.2207,-22.583985 z m 172.16407,2.376953 -106.16992,272.957031 18.45507,6.07422 87.71485,-227.171876 80.70703,170.992186 15.76758,-5.25586 -8.75977,-19.27148 7.94336,-6.07422 13.19727,17.51953 13.08203,-8.75976 -13.08203,-17.63672 9.57812,-7.00782 13.19727,17.63672 10.51172,-13.19922 z m 10.51172,39.478516 99.16211,126.374995 -28.03125,19.27149 z M 148.27148,202.38086 h 105.65625 c -1.52395,46.63441 -11.0603,81.74124 -33.09375,93.35156 0,-12.63246 -7.36736,-23.39951 -18.01171,-30.40039 0.64148,-1.26293 1.23688,-2.54072 1.77734,-3.82031 3.21733,-7.60389 3.04219,-13.36798 -0.4668,-17.16992 -3.50989,-3.80165 -8.22362,-5.14052 -14.36523,-3.97071 -6.14158,1.16982 -9.57726,9.08611 -10.16211,23.70899 h -4.32227 l -0.93359,-15.76758 c -8.18879,-4.67934 -19.01764,-7.93862 -32.4707,-9.69336 4.3894,-7.18935 7.39147,-21.41537 6.39257,-36.23828 z m 121.03711,0 h 0.0937 c 12.37154,0 37.29297,2.77766 37.29297,60.62695 v 85.80664 c -5.14428,-0.24288 -10.36559,-0.41748 -15.66406,-0.52343 -18.13233,-9.94353 -37.45963,-14.01841 -57.93164,-12.26368 -6.43407,-2.33964 -9.3447,-11.07152 -8.75977,-26.27929 37.95187,-23.91925 44.12383,-64.56511 44.96875,-107.36719 z m -74.8125,43.69531 c 2.63523,-0.12704 4.28768,2.00718 5.31446,4.45508 1.82756,4.35708 -0.16537,10.38439 -5.72266,17.98828 -5.55664,7.60388 -10.0393,11.32813 -13.54883,11.32813 -3.6741,0 -1.89798,-3.96864 0,-7.00586 l 4.32227,-4.32032 c 0.58483,-12.2832 2.884,-19.39426 6.6582,-21.49218 1.10977,-0.61688 2.09815,-0.91078 2.97656,-0.95313 z m -61.37695,0.48438 c 16.96251,1.16988 28.605,4.66251 35.03906,10.51172 v 15.76757 h 7.94336 c -3.50955,4.09438 -4.49944,7.58716 -3.03711,10.51172 1.46233,2.92455 5.52143,4.01547 13.01758,0.69141 3.60609,-1.59907 7.20283,-4.79679 10.41016,-8.80274 9.43918,6.7859 13.83008,13.90302 13.83008,34.50782 0,9.35864 1.74632,19.60541 5.25585,30.71875 -12.86814,11.69834 -27.18776,12.28037 -42.98046,1.75195 -6.43413,-8.7738 -10.27746,-19.36913 -11.44727,-31.65234 l -19.27148,3.5039 c -8.77371,1.75472 -14.18724,1.75472 -16.23438,0 -2.04721,-1.75471 -3.03711,-4.08322 -3.03711,-7.00781 l 14.01563,-7.82617 v -3.50391 l -15.76758,-3.62109 v -3.50391 h 8.75976 c -3.50952,-5.8491 -7.00219,-7.59545 -10.51171,-5.25586 -2.19343,1.46233 -3.84713,2.06232 -4.9043,1.98633 -0.8556,-0.0615 -1.2832,-0.96473 -1.2832,-1.04883 3.50643,-8.77763 7.34896,-16.11178 11.44336,-21.96094 10.52845,-8.1888 21.35731,-8.77089 32.4707,-1.75195 l 7.00781,0.93555 0.81836,-0.93555 c -7.60444,-4.09477 -14.00921,-6.83066 -19.27344,-8.29297 -5.26425,-1.46229 -10.85201,-1.05448 -16.70117,1.28516 z m 4.78906,12.49804 c -4.67932,0.14579 -7.76428,2.73721 -9.22656,7.70899 2.9246,6.43402 12.35574,6.08344 28.14844,-0.93555 -7.89636,-4.67932 -14.24256,-6.91966 -18.92188,-6.77344 z m -12.96484,39.24414 c 2.22994,-0.1096 4.95876,-0.14633 8.17578,0 l -14.94922,4.4375 c -1.0429,-1.31075 -1.00866,-2.00007 -0.11914,-3.0332 1.11342,-0.76811 3.47598,-1.23247 6.89063,-1.40039 z m 108.85547,50.68946 c 6.47063,-0.32883 14.67196,1.54209 24.76172,5.49023 -15.7927,20.47202 -37.09982,30.71875 -64.00586,30.71875 -27.49097,0 -45.07185,-5.58975 -52.67578,-16.70312 l 27.21484,-12.26367 c 17.54741,8.77372 37.10815,6.67673 58.75,-6.19141 1.75473,-0.58483 3.7982,-0.9411 5.95508,-1.05078 z m 26.51367,37.02539 c -18.13232,39.77417 -33.84971,76.37088 -47.30273,160.01367 19.30216,46.2082 21.28003,77.75989 6.07226,94.72266 -11.49298,25.69722 -10.16392,58.65205 -7.82422,82.92578 5.92287,61.45095 -25.10638,61.71458 -6.1914,107.54687 7.60389,18.4248 6.09098,35.62685 -4.4375,108.15625 8.77369,25.73628 8.77369,40.63793 0,44.73242 H 94.458984 v -3.5039 c 22.811656,-12.8683 41.964616,-22.76418 57.464846,-29.78321 15.50024,-7.01891 23.35937,-16.91492 23.35937,-29.7832 0,-20.47185 -4.01574,-36.10008 -11.91211,-103.36523 -7.89636,-67.2657 -15.46592,-128.47403 -22.77734,-226.44727 -7.31142,-97.97315 -3.99304,-145.57306 10.04492,-192.95117 5.2642,4.67937 21.09876,7.00781 47.41992,7.00781 26.90608,-1e-5 47.63107,-6.40339 62.25391,-19.27148 z"
     sodipodi:nodetypes="sccccscccccccsccccsccssccccccsscccscscscccscscsccccccsccscccscccccccccccccccccccsccscsssccccsssccccscccccccccccccccccccccccccsccccccsscccccsscsccssccccsscsccccscccccccscccccsccccccccccccccsccccccccsccccsssscsc" />
</svg>

<?xml version="1.0" encoding="UTF-8" standalone="no"?>
<svg
   width="600"
   height="1000"
   version="1.1"
   id="svg1"
   sodipodi:docname="1381F.svg"
   inkscape:version="1.4.2 (f4327f4, 2025-05-13)"
   xmlns:inkscape="http://www.inkscape.org/namespaces/inkscape"
   xmlns:sodipodi="http://sodipodi.sourceforge.net/DTD/sodipodi-0.dtd"
   xmlns="http://www.w3.org/2000/svg"
   xmlns:svg="http://www.w3.org/2000/svg">
  <defs
     id="defs1" />
  <sodipodi:namedview
     id="namedview1"
     pagecolor="#ffffff"
     bordercolor="#666666"
     borderopacity="1.0"
     inkscape:showpageshadow="2"
     inkscape:pageopacity="0.0"
     inkscape:pagecheckerboard="0"
     inkscape:deskcolor="#d1d1d1"
     inkscape:zoom="0.70710678"
     inkscape:cx="364.15999"
     inkscape:cy="627.20371"
     inkscape:window-width="1680"
     inkscape:window-height="998"
     inkscape:window-x="-8"
     inkscape:window-y="-8"
     inkscape:window-maximized="1"
     inkscape:current-layer="svg1"
     showguides="true">
    <sodipodi:guide
       position="4.234596,17.107108"
       orientation="0.95257762,-0.30429571"
       id="guide1"
       inkscape:locked="false" />
    <sodipodi:guide
       position="4.029193,16.006737"
       orientation="-0.95746447,0.28855121"
       id="guide2"
       inkscape:locked="false" />
  </sodipodi:namedview>
  <path
     style="fill:#000000;stroke:none;stroke-width:0.999998"
     d="m 438.4297,33.287444 -106.16943,272.957046 18.45409,6.07349 87.71534,-227.172204 80.70744,170.992344 15.76774,-5.25591 -8.75985,-19.27168 7.94227,-6.0735 13.19818,17.51971 13.0814,-8.75985 -13.0814,-17.63651 9.57742,-7.00788 13.19822,17.6365 10.51177,-13.19818 z m 10.51182,39.477738 99.16155,126.375488 -28.03154,19.27169 z"
     id="path3" />
  <path
     id="path1"
     style="fill:#000000;stroke:none;stroke-width:0.999998"
     d="M 239.28906 0 C 225.25115 0 214.42229 12.92393 206.81836 38.660156 L 149.82227 174.61328 C 162.1055 176.368 173.74795 180.79156 184.86133 187.81055 C 161.46473 193.6597 141.90404 211.12537 126.11133 240.37109 C 123.18679 244.46545 122.02254 248.54034 122.60742 252.63477 C 116.17336 263.16322 111.34203 271.66164 108.125 278.0957 C 106.41835 281.50905 103.82751 287.84238 107.65625 288.60742 L 116.41797 288.60742 L 115.59961 292.11133 C 112.09007 294.45093 112.09007 297.13019 115.59961 300.05469 C 111.4494 305.03473 114.82662 306.43303 116.41602 307.06055 L 117.35156 318.50781 C 112.9788 339.34059 92.941272 361.57078 76.611328 359.00391 C 69.325871 350.26036 59.436768 361.52815 71.339844 368.40039 C 97.200617 383.33111 126.92301 339.47325 138.375 322.83008 L 150.63867 322.01172 C 150.63867 328.4458 152.15158 335.43127 155.07617 343.03516 C 154.49212 350.63955 150.6498 355.29603 143.63086 357.05078 C 122.57391 361.14515 111.74701 369.81987 111.16211 382.98047 C 110.57726 396.14103 115.8163 405.97999 126.92969 412.41406 C 115.23139 449.26367 112.32078 486.32533 118.16992 574.0625 C 107.05653 578.74181 95.063439 579.14953 82.195312 575.34766 C 69.327219 571.54579 59.023304 568.05292 51.126953 564.83594 C 44.217644 562.02111 40.185247 559.62997 39.097656 557.71094 C 39.034776 557.57741 38.896386 557.25493 38.863281 557.12695 L 38.746094 557.00977 C 38.453594 554.96251 36.883549 554.02983 33.958984 554.32227 C 31.034414 554.61494 27.947502 554.38357 24.730469 553.50586 C 21.513438 552.62847 17.438542 551.69563 12.466797 550.81836 C 7.4950189 549.94097 3.82796 551.68734 1.4882812 556.07422 C -0.85135734 560.46108 -0.44359562 565.12 2.7734375 570.0918 C 5.9904705 575.06378 9.8318981 578.55625 14.21875 580.60352 C 18.605602 582.65051 21.690564 583.17346 23.445312 582.00391 C 57.955245 594.87197 88.344861 603.02176 114.66602 606.53125 C 121.1001 674.38129 129.77282 722.95782 140.59375 794.90234 C 151.41467 866.84675 155.89732 885.61897 154.14258 907.8457 C 154.14258 923.63836 148.72921 933.30285 137.9082 936.8125 C 127.08729 940.32227 105.95646 952.31322 74.371094 972.78516 L 58.486328 972.78516 C 45.033265 972.78516 44.451191 981.86764 56.734375 1000 L 217.33008 1000 C 233.12274 994.15082 234.28694 973.65927 220.83398 938.56445 C 231.36249 865.45023 233.11071 848.25003 226.0918 830.41016 C 208.93584 786.80487 235.84385 783.6986 231.34766 724.49805 C 228.35747 685.12172 229.77715 662.93047 240.10742 649.51367 C 256.53714 628.17501 252.75324 591.66021 232.28125 542.52734 C 245.14935 461.80912 255.97824 438.36977 264.75195 421.99219 C 273.52565 405.61459 282.25751 396.88081 291.03125 395.71094 C 297.17992 395.91938 303.43055 396.0354 309.7832 396.05859 L 309.7832 1000 L 323.7832 1000 L 323.7832 395.96289 C 349.04843 395.5298 375.85523 393.69538 404.20703 390.45508 C 411.81068 358.28516 416.46791 330.86689 418.22266 308.34766 C 419.9774 285.82846 424.40291 262.01854 431.42188 236.86719 C 441.95036 224.58399 449.51775 210.02891 454.19727 193.06641 C 455.3672 188.97199 455.94922 182.8021 455.94922 174.61328 C 455.94922 166.42451 456.29921 159.08837 456.88477 152.6543 C 456.88477 151.67268 456.76488 148.33594 455.13477 148.33594 C 453.38006 146.58123 451.63368 146.81262 449.87891 149.15234 C 446.82926 144.57824 444.70529 147.1167 443.6875 149.15234 C 442.40492 147.54896 440.01503 145.29222 437.61719 150.08789 C 433.99684 146.46754 431.42383 149.47477 431.42383 153.5918 C 432.00866 163.53537 431.83392 171.10489 430.95703 176.36914 C 430.0797 181.63333 427.57682 190.13178 423.48242 201.83008 C 422.6782 203.43864 421.71471 204.59869 420.91211 205.09961 C 420.62001 205.2454 420.27101 205.33398 419.97852 205.33398 C 419.87224 205.32028 419.54731 205.25998 419.39258 205.21875 L 419.27734 205.10156 L 419.16016 205.10156 C 418.47908 204.59524 417.8103 203.43857 417.4082 201.83008 C 417.4082 198.90553 418.22381 194.82869 419.97852 189.56445 C 421.73251 184.29892 422.25635 180.10814 421.37891 177.18359 C 420.50159 174.25904 418.58079 173.44344 415.65625 174.61328 C 413.3166 175.19811 412.3267 177.93445 412.61914 182.90625 C 412.91181 187.878 410.81458 194.98071 406.42773 204.04688 C 402.03925 213.1112 401.28244 223.41696 404.20703 235.11523 C 388.41426 291.26707 377.58744 331.66799 371.73828 356.23438 C 356.63508 353.35757 340.65178 351.23747 323.7832 349.89453 L 323.7832 263.00781 C 323.7832 236.42609 318.97248 217.97524 309.68359 205.68555 C 302.39896 196.04758 292.34463 190.88322 281.53906 189.10352 L 308.55078 64.939453 C 314.39992 39.788119 311.48929 23.720128 299.79102 16.701172 C 288.09275 9.682176 277.61449 9.1000426 268.25586 14.949219 C 262.99161 5.0056545 253.32701 0 239.28906 0 z M 240.77148 19.5 C 242.8359 19.53471 244.96246 20.137481 247.23047 21.023438 C 256.88471 24.794694 259.15383 34.194737 253.30469 51.742188 L 210.65625 185.3125 L 193.62109 180.6875 L 186.61328 173.67773 C 180.17923 169.5833 175.28875 167.02334 171.7793 165.85352 L 221.76953 42.164062 C 228.9493 24.399183 234.57822 19.395875 240.77148 19.5 z M 278.5332 30.910156 C 281.34114 30.922076 284.09898 31.771355 286.70898 32.470703 C 296.57598 35.114556 298.98101 44.706458 293.7168 62.253906 L 263 191.31445 C 258.90562 189.55969 252.73373 189.79313 244.54492 192.13281 L 235.78516 192.13281 L 219.86523 187.81055 L 260.3125 53.494141 C 265.93553 34.909397 272.35574 30.88393 278.5332 30.910156 z M 197.63086 196.44727 C 210.74481 196.3931 222.40188 200.10005 232.28125 204.86328 C 248.65884 212.75964 256.80859 225.50918 256.80859 243.05664 C 256.80858 260.60405 244.81581 278.18497 220.83398 295.73242 C 204.4564 298.65698 197.12222 291.9049 198.87695 275.52734 C 199.4618 273.7726 201.38263 269.11561 204.59961 261.51172 C 207.81694 253.90783 207.6418 248.14374 204.13281 244.3418 C 200.62292 240.54015 195.90919 239.20128 189.76758 240.37109 C 183.626 241.54091 180.19032 249.4572 179.60547 264.08008 L 175.2832 264.08008 L 174.34961 248.3125 C 166.16082 243.63316 155.33197 240.37388 141.87891 238.61914 C 154.1621 214.63763 168.25028 201.07249 184.04297 197.85547 C 188.72605 196.90151 193.25954 196.46532 197.63086 196.44727 z M 278.57422 202.73633 C 286.73834 203.76339 293.2166 207.11865 298.51367 214.12695 C 305.06352 222.79275 309.7832 238.15577 309.7832 263.00781 L 309.7832 348.96875 C 303.64364 348.64429 297.39306 348.41824 291.03125 348.29102 C 272.89892 338.34749 253.57162 334.27261 233.09961 336.02734 C 226.66554 333.6877 223.75491 324.95582 224.33984 309.74805 C 237.79287 302.14417 248.96848 292.30522 257.74219 280.31445 C 266.51589 268.32375 270.01058 254.58621 268.25586 239.08594 C 266.50114 223.58574 261.4935 211.76694 253.30469 203.57812 C 259.73875 204.16297 267.88851 204.9786 277.83203 206.14844 L 278.57422 202.73633 z M 194.49609 246.07617 C 197.13132 245.94913 198.78377 248.08335 199.81055 250.53125 C 201.63811 254.88833 199.64518 260.91564 194.08789 268.51953 C 188.53125 276.12341 184.04859 279.84766 180.53906 279.84766 C 176.86496 279.84766 178.64108 275.87902 180.53906 272.8418 L 184.86133 268.52148 C 185.44616 256.23828 187.74533 249.12722 191.51953 247.0293 C 192.6293 246.41242 193.61768 246.11852 194.49609 246.07617 z M 133.11914 246.56055 C 150.08165 247.73043 161.72414 251.22306 168.1582 257.07227 L 168.1582 272.83984 L 176.10156 272.83984 C 172.59201 276.93422 171.60212 280.427 173.06445 283.35156 C 174.52678 286.27611 179.00942 286.85829 186.61328 285.10352 C 186.61328 301.48111 194.52956 309.74805 210.32227 309.74805 C 210.32227 319.10669 212.06859 329.35346 215.57812 340.4668 C 202.70995 352.16514 188.39036 352.74717 172.59766 342.21875 C 166.16353 333.44495 162.3202 322.84962 161.15039 310.56641 L 141.87891 314.07031 C 133.1052 315.82503 127.69167 315.82503 125.64453 314.07031 C 123.59732 312.3156 122.60742 309.98709 122.60742 307.0625 L 136.62305 299.23633 L 136.62305 295.73242 L 120.85547 292.11133 L 120.85547 288.60742 L 129.61523 288.60742 C 126.10571 282.75832 122.61304 281.01197 119.10352 283.35156 C 116.91009 284.81389 115.25639 285.41388 114.19922 285.33789 C 113.34362 285.27639 112.91602 284.37316 112.91602 284.28906 C 116.42245 275.51143 120.26499 268.17728 124.35938 262.32812 C 134.88783 254.13932 145.71669 253.55723 156.83008 260.57617 L 163.83789 261.51172 L 164.65625 260.57617 C 157.05181 256.4814 150.64704 253.74551 145.38281 252.2832 C 140.11856 250.82091 134.5308 251.22872 128.68164 253.56836 L 133.11914 246.56055 z M 137.9082 259.05859 C 133.22888 259.20438 130.14392 261.7958 128.68164 266.76758 C 131.60624 273.2016 141.03738 272.85102 156.83008 265.83203 C 148.93372 261.15271 142.58752 258.91237 137.9082 259.05859 z M 124.94336 298.30273 C 127.1733 298.19313 129.90212 298.1564 133.11914 298.30273 L 118.16992 302.74023 C 117.12702 301.42948 117.16126 300.74016 118.05078 299.70703 C 119.1642 298.93892 121.52676 298.47456 124.94141 298.30664 L 124.94336 298.30273 z M 233.79883 348.99219 C 240.26946 348.66336 248.47079 350.53428 258.56055 354.48242 C 242.76785 374.95444 221.46073 385.20117 194.55469 385.20117 C 167.06372 385.20117 149.48284 379.61142 141.87891 368.49805 L 169.09375 356.23438 C 186.64116 365.0081 206.2019 362.91111 227.84375 350.04297 C 229.59848 349.45814 231.64195 349.10187 233.79883 348.99219 z M 260.3125 386.01758 C 242.18018 425.79175 226.46279 462.38846 213.00977 546.03125 C 232.31193 592.23945 234.2898 623.79114 219.08203 640.75391 C 207.58905 666.45113 208.91811 699.40596 211.25781 723.67969 C 217.18068 785.13064 186.15143 785.39427 205.06641 831.22656 C 212.6703 849.65136 211.15739 866.85341 200.62891 939.38281 C 209.4026 965.11909 209.4026 980.02074 200.62891 984.11523 L 94.458984 984.11523 L 94.458984 980.61133 C 117.27064 967.74303 136.4236 957.84715 151.92383 950.82812 C 167.42407 943.80921 175.2832 933.9132 175.2832 921.04492 C 175.2832 900.57307 171.26746 884.94484 163.37109 817.67969 C 155.47473 750.41399 147.90517 689.20566 140.59375 591.23242 C 133.28233 493.25927 136.60071 445.65936 150.63867 398.28125 C 155.90287 402.96062 171.73743 405.28906 198.05859 405.28906 C 224.96467 405.28905 245.68966 398.88567 260.3125 386.01758 z " />
</svg>
